X:1
T:Sir Ulick Burk
M:C|
L:1/8
B:Daniel Wright – Aria di Camera (London, 1727, No. 45)
N:”being A Choice Collection of Scotch, Irish & Welsh Airs
N:for the Violin and German Flute by the following masters
N:Mr. Alex. Urquahart of Edinburgh, Mr. Dermot O'Connar of Limrick
N:Mr. Hugh Edwards of Carmarthen”
F:  https://ia600808.us.archive.org/20/items/AriaDiCamera1727/Wright-AriaDiCamera-1727.pdf
Z:AK/Fiddler’s Companion
K:Gmin
gfga b2 ag|(fg)(fd) c2 (BA)|B2 BG Bcde|dcdF GABc|
B2 (B/c/d) c2c2|dcdg f3f|gfga bc'd'c'|(ag)(gf) d4|
f2 (f/g/a) g2 (a/b/c')|(ba)(gf) d2 (cB)|f2 (e/f/g) (fd)(Bd)|(cB)(AG) G4:|
|:DGGF GABG|AGAF ABcA|B2f fgfc|d2g2 g4|
babc' (b/c'/d) (c'b)|agab (a/b/c') (ba)|gfga babc'|d2 (B/c/d) c4|
fddg f2f2|g2 (a/b/)c' (ba)(gf)|(dc)(dB) (fd)(gd)|(cB)(AG) G4:||

